X: 5
T: Rosin The Bow
R: jig
M: 6/8
L: 1/8
K: Gmaj
|:D|"G"GAG "D"FED|"G"d3 "C"efg|"G"dBG GAB|"C"E3 "D"DEF|
"G"GAG "D"FED|"G"d3 "C"efg|"G"dBG "D"ABA|"G"G3 G2:|
|:d|"G"dBd "D"def|"C"g2e g2e|"G"dBG GAB|"C"E3 "D"DEF|
"G"GAG "D"FED|"G"d3 "C"efg|"G"dBG "D"ABA|"G"G3 - G2:|

